X:1
T:Romance
T:ROMANCE
T:for Violin and Piano
T:Antonín Dvořák Op. 11 / B. 38 (1873) 
C:Antonín Dvořák, op. 11
%%score ( 1 2 ) { ( 3 5 7 ) | ( 4 6 8 ) }
L:1/8
Q:1/8=132
M:6/8
K:Ab
V:1 treble nm="Violin"
V:2 treble 
V:3 treble nm="Piano"
V:5 treble 
V:7 treble 
V:4 treble 
V:6 treble 
V:8 treble 
V:1
"^Andante con moto" z6 | z6 | z6 | z6 | z6 | z6 | z6 | z6 | z6 | z6 | z6 | z6 | z6 | z6 | z6 | z6 | %16
 z6 | z6 | z6 | z6 | z6 | z6 | z6 |!p!"_molto espressivo" (!tenuto!c3 !tenuto!c3) | (d>cd e2 c) | %25
 (A3 B>AB) | c3- c2 z | !tenuto!c3 !tenuto!c3 |!<(! (d>cd f2 e)!<)! |!>(! (d3 __B>_cd)!>)! | %30
!p! !tenuto!A3 !tenuto!A3 | A3- A/(D/F/A/ (3d/f/a/) | (d'6- | %33
!>(! d'/f'/d'/b/a/f/!>)!!p! d/A/)F/A/d/e/ | (f/d/c/d/B e3) | (e/B/A/B/G A2) (c/e/) | %36
 (e/d/c/d/F)!<(! (c/B/=A/B/D |"^poco stringendo" B/_A/G/A/C/D/)!<)!!f! (F/E/=D/E/G,/B,/ | %38
 _D/C/=B,/C/!>(!G,/A,/) (F/E/C/E/_B/A/) | (E/A/d/c/A/c/ f/e/)!>)!c/e/a/c'/ | %40
!p!"^in tempo" !tenuto!e'3 !tenuto!e'3 |!<(! (e'>=d'e' _g'2 f')!<)! | %42
!>(! !tenuto!e'3 !tenuto!e'3!>)! | %43
!p! (e'3 e'/)(!tenuto!A/!tenuto!B/!tenuto!c/!tenuto!d/!tenuto!e/) |!<(! f3 f3 | %45
 g>fg!<)!!f! (!>!a2 g) | (f3!>(! e2 c) | (e3- e2 d)!>)! |!p! (!tenuto!c3 !tenuto!c3) | %49
!<(! (d>cd f2 e)!<)! |!>(! (d>cd f2 e)!>)! |"_molto dim." ((e2 d) (e2 d) | (d2 _c) (d2 c)) | %53
!pp! ((_c2 B) (c2 B)) | (^A2 ^G) (G2 ^F) | %55
!<(!"_[" (^F2 =E)!<)!"_]"!f!!>(!({!fermata!^D!fermata!E} !fermata!F2- F/E/)!>)! | =E2 z z2 z | %57
!p! (=e3 ^g3) | (^f3 =b2-!<(! b/^c'/) | =d'3- d'!>!=e'!>!^f'!<)! | (!>!^f'3!>(! ^c'2 ^a)!>)! | %61
 (^c'3- c'2 =a) |!>(! (_a3- a2 _g!>)! |!pp!"_morendo" f3 e2 B | d3 c3 | d2) z z2 z | z6 | z6 | z6 | %69
 z6 |!pp! (d3 f3) | (e3 a2- a/>b/) |!<(! _c'3- c'!<)!!>!d'!>!e' | (e'3 b2 g) |!>(! (b3- b2 _g!>)! | %75
!p!!>(! f3- f2 e)!>)! |"_dimin." (d3 c2 B |!pp! e3- e2) e | A3- A z z | z6 | %80
!mf! z2!<(! ^C/4^F/4=A/4=B/4!<)! !>!^c2!<(! (5:4:5F/4A/4c/4^d/4=e/4!<)! | %81
 ^f2"_cresc." =A/4^c/4f/4^g/4 =a!<(! ^F/4A/4c/4^d/4 (5:4:5f/4a/4^c'/4^d'/4^f'/4!<)! | %82
!>(! (_a'=f'_e' =c'_b_a!>)! | e'c'b)!<(! (ae/c/A/G/)!<)! | %84
 (^F3/2=A,/4^C/4!<(! ^E/4F/4=A/4=B/4!<)! ^c3/2)!<(! (^E/4F/4 A/4c/4^e/4^f/4!<)! | %85
 =a) (^g/4^f/4^c/4f/4 a/4g/4=b/4a/4"_dim." g/4a/4b/4a/4!>(! ^c'/4^b/4=d'/4c'/4 ^f'/4^e'/4^g'/4f'/4)!>)! | %86
!p! =a'6- | (a'6 |!mf! g')(3(_e'/=d'/f'/(3_e'/=b/d'/ (3c'/g/_b/(3=a/g/f/(3e/=d/c/ | %89
 =B/4c/4"_dim."G/4_B/4=A/4G/4F/4E/4=D/4E/4G/4E/4 c/4G/4e/4c/4g/4e/4c'/4g/4e'/4=d'/4c'/4g/4) | %90
!p!{/=a} (=a'[=d'^f']"_*)"[a=e']) ([^fd']"^*) ossia:"[=ea][=df]) | %91
 ([^f=a][=df][=A=e]!<(!"_[" [^Fd][=EA][=DF])!<)!"_]" | %92
 !>![G,=F]3/2!<(!(G,/4=B,/4 =D/4=E/4F/4=A/4)!<)! !^!=B3/2!<(!(B,/4D/4 F/4G/4B/4c/4)!<)! | %93
 =d3/2(=D/4=E/4 F/4G/4=B/4d/4 f/4=e/4d/4c/4B/4c/4d/4e/4f/4g/4=a/4f/4) | %94
 (f=e/4f/4g/4e/4_B/4c/4_d/4B/4 G/4=A/4B/4G/4A/4B/4G/4A/4B/4G/4A/4B/4) | %95
 (G/4=A/4B/4G/4A/4B/4G/4A/4B/4G/4A/4B/4 G/4A/4B/4G/4A/4B/4G/4A/4B/4G/4A/4B/4) | %96
 (c/4=A/4B/4c/4A/4B/4c/4A/4B/4c/4A/4c/4)"_cresc." (e/4c/4=d/4e/4c/4d/4e/4c/4d/4e/4c/4d/4) | %97
 (e/4f/4_g/4e/4f/4g/4e/4f/4g/4e/4f/4g/4) (e/4f/4g/4e/4=a/4^f/4=g/4a/4c'/4a/4b/4c'/4) | %98
!f! (e'/4c'/4_d'/4e'/4c'/4d'/4e'/4c'/4d'/4e'/4c'/4e'/4) (_g'/4e'/4f'/4g'/4e'/4f'/4g'/4e'/4f'/4g'/4e'/4f'/4) | %99
 (_g'/4f'/4e'/4d'/4c'/4b/4=a/4e'/4d'/4c'/4b/4a/4) (_g/4f/4e/4c'/4b/4=a/4_g/4f/4(6:4:6e/4d/4c/4g/4f/4=A/4 | %100
 B) z z z2 z | z6 | z6 | z6 | z6 | z6 | z6 | z6 | z6 | z6 | z6 | z6 | z6 | z6 | z6 | z6 | z6 | %117
!<(! z6!<)! | z6 |!p!!<(! c'6!<)! | %120
!p!"_legato" (3(_c'/d'/c'/(3b/c'/b/(3a/b/a/ (3d'/e'/d'/(3c'/d'/c'/(3b/c'/b/) | %121
 (3(_c'/d'/c'/(3b/c'/b/(3a/b/a/"_cresc." (3d'/e'/d'/(3c'/d'/c'/(3b/c'/b/) | %122
 (3(d'/e'/d'/(3=c'/d'/c'/(3b/c'/b/ (3e'/f'/e'/(3d'/e'/d'/(3c'/d'/c'/) | %123
!f! (3(e'/f'/e'/(3=d'/e'/d'/!<(!(3c'/d'/c'/ (3f'/g'/f'/(3e'/f'/e'/(3d'/e'/d'/)!<)! | %124
"^♭" Tf'3"^rit.""_dim." !>!Tf'(!>!Ta'!>!T_g') |!p!"^a tempo" c'3 c'3 | (d'>c'd') (e'2 d') | %127
 !trill(!Tc'6 | !trill(!Tc'6 |"_dim." !trill(!Tc'6 | !trill(!Tc'6 |!pp!{/d'} !>!c'3{/d'} !>!c'3 | %132
{/d'} !>!c'3{/d'} !>!c'3 |!p!"_molto espressivo" (!tenuto!c3 !tenuto!c3) | (d>cd e2 c) | %135
 (A3 B2 A/4B/4A/4B/4) | (!tenuto!c3 !tenuto!c3) | !tenuto!c3!<(! !tenuto!c3 | %138
 (d2 c/4d/4!<)!c/4d/4 f2 e) | (d3 __B>_cd) |!p! !>!A3 !>!A3 | %141
 A3- A/(D/F/A/ (3!tenuto!d/!tenuto!f/!tenuto!a/) | d'6- | %143
!>(! d'/(f'/d'/b/a/f/!>)!"_]"!p! d/A/)F/A/d/e/ | (f/d/c/d/B e3) | (e/B/A/B/G A2) (c/e/) | %146
 (e/d/c/d/F)!<(! (c/B/=A/B/D!<)! |"^poco stringendo""_cresc." B/_A/G/A/C/D/) (F/E/=D/E/G,/B,/ | %148
!f! _D/C/=B,/C/G,/A,/) (F/E/C/E/_B/A/) | (E/A/d/c/"_dim."A/c/ f/e/)c/e/a/c'/ | %150
!p!"^in tempo" !tenuto!e'3 !tenuto!e'3 |!<(! (e'>=d'e' _g'2 f')!<)! | %152
!>(! !tenuto!e'3 !tenuto!e'3!>)! | %153
!p! (e'3 e'/)!<(!(!tenuto!A/!tenuto!B/!tenuto!c/!tenuto!d/!tenuto!e/)!<)! | f3!<(! f3 | %155
 g>!<)!fg!f!"^[   ]" (!>!a2 g) |!>(! (f3 e2)!>)! (c/4d/4c/4d/4) | (e3-"_dim." e2 d/e/4d/4) | %158
!pp! c3{/=B} !>!c3 | (d>cd)!<(! (f2 e) | d2 (c/4d/4c/4d/4)!<)!!>(! (_f2 e) | %161
 (^c>^Bc!>)!"_dim." ^f2 =e) | (=d2!>(! ^c/4d/4^c/4d/4 ^f2 =e)!>)! |!pp! ((=e2 =d) (e2 d) | %164
 (=d2 c) (d2 c)) | ((c2 =B) (c2 B)) |!<(! (=B2 =A) (A2 G)!<)! | %167
!>(! (G2 F)!>)!!<(!({!fermata!=E!fermata!F} !fermata!G2-!<)!!>(! G/!pp!F/)!>)! ||[K:F] F2 z4 | z6 | %170
 z6 | z6 | z!mf! (!tenuto!g!<(!!tenuto!a !tenuto!=b!tenuto!c'!tenuto!d')!<)! | %173
!<(! (d'3- d'e'^f'/g'/)!<)! |!f! a'3!>(! (a2- a/b/4a/4)!>)! | d'3!>(! (d2- d/e/4d/4)!>)! | %176
 a3!>(! (B2- B/c/4B/4)!>)! | (f3- fge) | (f-!mf!f/(3g/4f/4e/4 f/>g/) !>!a3 | %179
 (g3!<(! c'2- c'/>d'/)!<)! |!f! !^!_e'2- e'/(3(f'/4e'/4d'/4!<(! e')!>!f'>g'!<)! | %181
!ff! (!^!g'3 d'2 =b) | (d'3-"_dim." d'2 _b) | (a3- a2 g) |!p!!>(! (f3- fdB)!>)! | %185
!pp! A2 (A/4B/4A/4B/4"^ritard." A)(A/4B/4A/4B/4c/4B/4)A/4G/4 |!pp!"^in tempo""^IV" (F3!<(! E3 | %187
 D3 C3)!<)! |!f! (D3-!>(! D2- D/E/)!>)! | %189
!p! (F3 E-!<(!(6:4:6E/4F/4G/4A/4B/4c/4 (6:4:6d/4e/4f/4g/4a/4b/4)!<)! |!f! !>!c'3 !>!c'3 | %191
 (d'>c'd') (e'2 c') |"_dim." a3 (b>ab) | c'3{/_d'} c'3 |"^rit."{/_d'} c'3{/d'} c'3 | %195
"^in tempo"!pp! (f'=d'c' ac'd' | c'ag!<(! fc/A/F/E/)!<)! | %197
 _E2- E/D/8E/8_G/8A/8"_dim." B2- B/F/8G/8B/8d/8 | %198
 _e2- e/"^(  )"=A/8B/8e/8f/8 _g/4f/4e/4d/4 e/4f/4g/4_a/4 b/4c'/4d'/4_e'/4 | %199
!pp! (f'(3d'/=e'/d'/(3c'/d'/c'/ (3a/b/a/(3c'/d'/c'/(3d'/e'/d'/ | %200
 (3c'/d'/c'/(3a/b/a/(3g/a/g/!<(! (3f/g/f/c/4d/4c/4B/4A/4G/4F/4E/4)!<)! | %201
 _E2- E/4D/4E/4_G/4 !^!B2- B/4F/4G/4B/4 | %202
 !>!_e(F/4_G/4)B/4e/4 !>!_g(=A/4B/4)e/4g/4 !>!b(B/4e/4)g/4b/4 |!f!{/c'} !trill(!Tb6 | %204
(({ab))} c'b/a/=g/f/ _e/d/c/B/_A/_G/ | %205
 (F/=A/c/"_dim."B/4A/4!tenuto!=G/!tenuto!F/) (!tenuto!_E/!tenuto!_D/!tenuto!C/!tenuto!B,/!tenuto!C/!tenuto!D/) | %206
 (C/F/A/B/c/B/4A/4)!pp! (!tenuto!B/!tenuto!_e/!tenuto!f/!tenuto!_g/!tenuto!f/!tenuto!e/) | %207
 (c/f/a/b/c'/b/4a/4) (!tenuto!b/!tenuto!_e'/!tenuto!f'/!tenuto!_g'/!tenuto!f'/!tenuto!e'/) | %208
"^poco stringendo e cresc." f'/(a/b/c'/b/a/) z/!<(! c'/_d'/_e'/(Pd'/c'/) | %209
 f'/f/g/a/(g/f/)!<)! z/!f! =e'/f'/g'/(f'/e'/ | %210
 b'/)!>!g'/!>!e'/!>!_d'/!>!b/!>!g/ !>!=e/(_d/b/!tenuto!g/)!tenuto!e/!tenuto!d/ | %211
"_dim. e rit." (B/G/E/_d/B/G/) (E/d/B/G/E/d/ | BGE)!pp! (!fermata!_d2- d/c/) |"^in tempo" f6- | %214
 f z (!>!g/f/- f3/2) z/ (!>!g/f/- | !trill(!Tf6)({ef)} | f'6 | a'6- | !fermata!a'2 z z2 z |] %219
V:2
 x6 | x6 | x6 | x6 | x6 | x6 | x6 | x6 | x6 | x6 | x6 | x6 | x6 | x6 | x6 | x6 | x6 | x6 | x6 | %19
 x6 | x6 | x6 | x6 | x6 | x6 | x6 | x6 | x6 | x6 | x6 | x6 | x6 | x3!<(! x3!<)! | x6 | x6 | x6 | %36
 x6 | x6 | x6 | x6 | x6 | x6 | x6 | x6 | x6 | x6 | x6 | x6 | x6 | x6 | x6 | x6 | x6 | x6 | x6 | %55
 x6 | x6 | x6 | x6 | x6 | x6 | x6 | x6 | x6 | x6 | x6 | x6 | x6 | x6 | x6 | x6 | x6 | x6 | x6 | %74
 x6 | x6 | x6 | x6 | x6 | x6 | x6 | x6 | x6 | x6 | x6 | x6 | x6 | x3!<(! x3!<)! | x6 | x6 | x6 | %91
 x6 | x6 | x6 | x6 | x6 | x6 | x6 | x6 | x6 | x6 | x6 | x6 | x6 | x6 | x6 | x6 | x6 | x6 | x6 | %110
 x6 | x6 | x6 | x6 | x6 | x6 | x6 | x6 | x!>(! x2 x3!>)! | x3!>(! x3!>)! | x6 | x6 | x6 | x6 | %124
 x3 x3 | x6 | x6 | x6 | x6 | x6 | x6 | x6 | x6 | x6 | x6 | x6 | x6 | x6 | x6 | x6 | x6 | x6 | %142
 x3!<(!"_[" x3!<)! | x6 | x6 | x6 | x6 | x6 | x6 | x6 | x6 | x6 | x6 | x6 | x6 | x6 | x6 | x6 | %158
 x6 | x6 | x6 | x6 | x6 | x6 | x6 | x6 | x6 | x6 ||[K:F] x6 | x6 | x6 | x6 | x6 | x6 | x6 | x6 | %176
 x6 | x6 | x6 | x6 | x6 | x6 | x6 | x6 | x6 | x6 | x6 | x6 | x6 | x6 | x6 | x6 | x6 | x6 | x6 | %195
 x6 | x6 | x6 | x6 | x6 | x6 | x6 | x6 | x6 | x6 | x6 | x6 | x6 | x6 | x6 | x6 | x6 | x6 | x6 | %214
 x6 | x6 | x6 | x6 | x6 |] %219
V:3
!pp! (!tenuto!c'3 !tenuto!c'3 | d'>c'd' e'2 c' | a3 b>ab) | (c'2 b abg | fd'c' b2 e') | %5
 (c'f'c' d'ad' | a=gf =efg | f3 _g3) | (f_a_g- gdB) | (A=GF- FGA | _cBA) !>!d3 | %11
 ([F_c][_GB][FA]"^poco string."!<(! !>!d3) | ([B_d][A=c]!<)![=GB] !>!e3) | %13
!f! ([ce][B=d][=Ac] !>!f3) | (f3-!>(! fa_g)!>)! |"^a tempo"!p! (!tenuto!=c3 !tenuto!c3 | %16
!>(! d>cd e2 d)!>)! |"_dim." c6 |!pp! c6 | ([CA][B,G][A,F] [G,=E]>[A,F][B,G]) | %20
 ([CA][B,G][A,F] [G,=E]>[A,F][B,G]) |{/d} !>![FAc]3{/d} !>![=EGc]3 | %22
!>(!{/d} !>![FAc]3{/d} !>![=EGc]3!>)! |!pp! c6 | A6 | (A3 B3) | ([FA]3 [=EG]>.[FA].[GB]) | %27
 ([FA]3 G3) |!<(! A6!<)! |!>(! !>!D6!>)! |!p! D3 x x2 | x6 |!pp!!<(! ([dfa]3 [ce_g]>.a.__b!<)! | %33
!>(! [dfa]3-) [dfa]!>)! z z |!p! ([DF]3 [Ge]/B/A/B/G- | (G3) [Ae]/c/B/c/A) |!<(! ([DF]6!<)! | %37
"^poco stringendo"!mf! [CE]3!>(! [D-F] [DE-]2 | [CE]2)!>)! z z2 z | z6 |"^in tempo"!pp! (c3 B3) | %41
!<(!"_[" ([E=A]3 [Bd]3)!<)!"_]" |!>(! ([_Ac]3 [GB]>[Ac][Bd]!>)! |!pp! [Ac]3- [Ac]) z z | %44
 [FAc]3!<(! ([F=B-=d-]3 | [GBd]3)!<)! ([cf]3- | f3 e2 c) |!>(! (e3- e2 d)!>)! |!pp! (A3 G3) | %49
!<(! (F3 _G3)!<)! |!>(! (F3 _G3)!>)! |!>(! !>![FA]6 | !>![FA]6!>)! |!pp! ([EA]3 [_DG]3 | %54
 [=B,^G]3 [=A,^C^F]3) | (=E3!ppp! !fermata!^D3) | %56
!pp! (=E/=B/ ^G/^cB/)"_m.s.""^" (E/"^"B/ G/cB/) | (=E/=B/ ^G/^cB/) (E/B/ G/cB/) | %58
 (^D/=B/ ^F/^cB/) (D/B/ F/cB/) | (=D/=A/ ^F/=BA/) (D/A/ F/BA/) | (^C/^A/ ^F/^cA/) (C/A/ F/cA/) | %61
 (^C/^F/ ^D/=AF/) (C/F/ D/AF/) | (=C/_G/ _E/_AG/) (=C/G/ _E/_AG/) | %63
"_morendo"!pp! (D/A/ F/BA/) (B,/_G/ E/AG/) | (A,/F/ D/_GF/) (A,/E/ C/FE/) | %65
 (!tenuto![Afa]3 !tenuto![Aea]3) |!<(! (b>ab c'2 a)!<)! | (f3!>(! _g>fg) | %68
 !tenuto![fa]3!>)! !tenuto!a3- | a/!pp! (A/F/BA/) z/ (A/F/BA/) | z/ (A/F/BA/) z/ (A/F/BA/) | %71
 z/ (A/E/BA/) z/ (A/E/BA/) | z/ (_G/!<(!E/AG/) z/ (G/E/AG/)!<)! | z/ (=G/E/BG/) z/ (G/E/BG/) | %74
!>(! z/ (E/C/_GE/) z/ (E/C/GE/)!>)! |!p! z/ (E/C/FE/) z/ (E/C/FE/) | %76
"_dimin." z/ (F/D/_GF/) B,/(F/D/=GF/) |!pp! C/(A/E/BA/) D/(A/E/BG/) | %78
!pp!"_sempre" (!tenuto![cea]!tenuto![Acf]!tenuto![Ace] !tenuto![EAc]!tenuto![EB]!tenuto![EA] | %79
 !tenuto![Ace]"_cresc."!tenuto![EAc]!tenuto![EB] !tenuto![CEA]!tenuto!E!tenuto!C) | [D_G]6- | %81
 [DG]6 |!pp!{/C} [EA]6 | z6 | [^C^F]6- | [CF]6 |!pp! ([=a^f'=a'][=d'f'][a=e'] [^fd'][=ea][=df]) | %87
 ([^f=a][=df][=A=e]!<(! [^Fd][=EA]F/=D/)!<)! | [G,CG]6- | ([G,CG]=A=B!<(! c=df/e/)!<)! | %90
!pp! [=D=d]6- | [Dd]6 | (=f=d=B!<(! =AF=D)!<)! |!p! (=af=d c=BG/F/) |!pp! (_bg=e _dBG) | %95
 (_d'bg =e_dc/B/) | (_e'c'!<(!=a _gec)!<)! |!p!!<(! (_g'e'c' =a_ge)!<)! | %98
!f! !>![e_g=ac'e'] z z !>![egac'e'] z z |!f! !>![e_g=ac'e'] z z z2 z | %100
!ff! !^![Bdfb]!^![_GBe_g]!^![FBf] !^![Gce]!^![FBd]!^![E=Ac] | %101
 !^![FBd]!^![CF=A]!^![DFB] !^![F_Ac]!^![FBd]!^![Fc] | %102
"_sempre marcatissimo" !^![=DG=B]!^![cec']!^![cfa] !^![ceg]!^![A=df]!^![Gce] | %103
 !^![FG=d]!^![EGe]!^![_Gce_g] !^![Fcef]!^![f=af']!^![fbd'] | %104
 !^![e=gb]!^![ebe']!^![e_ac'] !^![dfa]!^![dad']!^![dfb] | %105
 !^![c=eg]!^![cac']!^![cdeb] !^![cfa]!^![Bdg]!^![A=df] | %106
!>(! !^![Gc=e] .[Ac].[GB] .[FA].[_EG].[_DF]!>)! |!p! .[c=e].[=df].[eg] .[fa].[_eb].[_d=b] | %108
 .[c=ec']"_dim." .[CA].[B,G] .[A,F].[G,_E].[F,D] | .[=E,C].[c=e]!>(!.[=df] .[eg].[fa].[gb]!>)! | %110
!p!"_legato" agf =efg | fba g_eg | Afe ded |!pp! c'ag fg=e | fba- afg | afa _gfg | %116
 ([fa][B=g][Af] [G=e]fg) |!<(! (f3 _g3)!<)! | (f!>(!_a_g- gdB)!>)! |!p! A=GF- FGA | %120
!pp! ([A_c][_GB][FA] [Bd][_CAc][DGB]) | ([_ca][B_g][Af]"_cresc." [db][ca][Bg]) | %122
 ([db][=ca][B=g] [e=c'][db][ca]) |!f! ([ec']!<(![=db][c=a] [f=d'][ec'][db])!<)! | %124
 ([f_d'][ec'][db]"_rit."!>(! [fd'][f_c'][_g-b])!>)! |"_a tempo"!p! (gfa =gfa | %126
 [FA][GB][Ac] [GB][=EG][GB]) | ([Ac][GB][FA]"_dim." [=EG]>[FA][GB] | [Ac][GB][FA] [=EG]>[FA][GB]) | %129
!pp! ([CA][B,G][A,F] [G,=E]>[A,F][B,G] | [CA][B,G][A,F] [G,=E]>[A,F][B,G]) | %131
!pp! !>![FAc]3 !>![=EGc]3 | !>![FAc]3 !>![=EGc]3 | [FAc]3 [Gc]3 | [FA]3 [EA]3 | (A3 B>AB) | %136
 ([FA]3 [=EG]>[FA][GB]) | ([FA]3 G3) |!<(! A6!<)! | (A3!>(! __B3!>)! | %140
!pp! [FA]3) ([CE]>[DF][E_G]) | [DF]3- [DF] z z |!p! (a3 _g>.a.__b | a3-) a z z | F3 e/B/A/B/G- | %145
 G3 e/c/B/c/A | F6 |"^poco stringendo"!mf!!<(! ([CE]3 F E2-)!<)! | E2 z z2 z | z6 | %150
"^in tempo"!pp! (c3 B3) |!<(! ([E=A]3 [Bd]3)!<)! | ([_Ac]3!>(! [GB]>[Ac][Bd] | %153
 [Ac]3-!>)! [Ac]) z z |!p! [FAc]3!<(! ([F=B-=d-]3 | [GBd]3)!<)! ([cf]3- | f3 e2 c) | %157
 (e3-"_dim." e2 d) |!pp! (A3 G3) | (F3!<(! _G3) | [FA]3!<)!!>(! [_GA]3 | [=E^G]3!>)!!pp! [=G=A]3 | %162
 [^F=A]3 [GA]3 | [^F=A]6 | [^F=A]6 | ([=E=A]3 [=D^G]3 |!<(!"_[" [C=A]3 [_B,=D=G]3)!<)!"_]" | %167
!>(! [=A,CF]3!>)!!ppp! !fermata![B,C=E]3 ||[K:F]!pp! (F/c/ A/dc/) (F/c/ A/dc/) | %169
 (F/c/ A/dc/) (F/c/ A/dc/) | (E/c/ B/dc/)!<(! (E/c/ G/dc/) | (G/_e/ B/fe/) (G/e/ B/f!<)!e/) | %172
!f!!<(! (G/d/!<)!!>(! =B/=ed/)!>)!!<(! (G/d/ B/!<)!!>(!!>(!ed/)!>)! | %173
!<(! (G/d/ _B/!<)!!>(!_ed/)!>)!!<(! (^F/d/ A/!<)!!>(!=ed/)!>)! | %174
!<(! (A/d/"_simile" ^c/!<)!!>(!=fe/)!>)!!<(! (A/!>)!d/ c/!<)!!>(!fe/)!>)! | %175
 (D/=c/"_dim." A/dc/) (D/B/ G/cB/) | (D/A/ F/BA/) (_D/A/ F/BA/) |!pp! (C/A/ F/BA/) (C/G/ E/AG/) | %178
!p! [A,CF]/[A,CF]/[A,CF]/[A,CF]/[A,CF]/[A,CF]/ [A,CF]/[A,CF]/[A,CF]/[A,CF]/[A,CF]/[A,CF]/ | %179
 [G,CE]/[G,CE]/[G,CE]/[G,CE]/[G,CE]/[G,CE]/!<(! [G,CE]/[G,CE]/[G,CE]/[G,CE]/[G,CE]/[G,CE]/!<)! | %180
 [G,C_E]/[G,CE]/ (B,E"_cresc." GB>_e) |!f! (d=BG) z (B"_dim."G) | z"_sempre" (_BG DG>D) | %183
 ^C3 x x2 |!p! D/D/D/D/D/D/ x x2 | %185
!pp![I:staff +1] [F,A,C]/[F,A,C]/[F,A,C]/[F,A,C]/[F,A,C]/[F,A,C]/"^ritard." [E,A,C]/[E,A,C]/[E,A,C]/[E,A,C]/[E,G,C]/[E,G,C]/ | %186
!pp!"^in tempo"[I:staff -1] !tenuto![FA]3 !tenuto![EA]3 | (B>AB c2 A) | (!>!F3 G>FG) | %189
 !tenuto![DFA]3 !tenuto!A3 |!mf! [A=cfa]3 [Gcg]3 | [fa]3 [Aa]3 |"_dim." [F-Acf-]3 [FB_df]3 | %193
!>(! [Acfa]3 [eg]>[fa][gb] | [f_a]3"_rit." [eg]>[fa][gb]!>)! | %195
!pp!"_in tempo" .[f=af'].[fad'].[fac'] .[cfa].[fac'].[fad'] | %196
 .[fac'].[cfa].[cfg] .[Acf].[FAc].[CFA] | [_E,B,_E]6- | [E,B,E]3- [E,B,E] z2 | %199
!pp! (!tenuto![Acf]!tenuto![FAd]!tenuto![FAc] !tenuto![FA]!tenuto![FAc]!tenuto![FAd]) | %200
 (!tenuto![FAc]!tenuto![CFA]!tenuto![CFG] !tenuto![A,CF]!tenuto![F,A,C]!tenuto![A,CF]) | %201
 [_G,B,_E]3- [G,B,E]2 z | z6 | z2 z !^!C3 | C6 | C6 |!pp! C6 | C6 | %208
"^poco stringendo e cresc." [A,C]3!<(! ([=G,B,=E]3!<)! | [A,C]3)!f! [=G,B,=E]3- | %210
 [=G,B,=E] z z z2 z |"_rit." z6 | !fermata!z6 |!pp! (F/c/A/dc/ F/c/A/dc/) | (C/A/F/BA/ C/A/F/BA/) | %215
 A6 |!<(! ([FA]!<)!!>(![Bd][Ac])!>)!!<(! ([FA]!<)!!>(![Bd][Ac])!>)! |!ppp! [FAcf]6- | %218
 !fermata![FAcf]2 z z2 z |] %219
V:4
 (agf =efg | fba g_eg | afe ded) |!p! (!tenuto!c3 !tenuto!c3 |!<(! d>cd!<)!!>(! e2 c)!>)! | %5
!p! (A3 B>AB) | (c"_poco\nmarc.\n"BA GF=E) | F3 _G2 E | (ECE) D3 |[K:bass] (CB,A,) (A,G,F,) | %10
 (F,_G,A,)!ped! x2 x!ped-up! | (F,_G,A,)!ped! x2 x!ped-up! | (=G,A,B,)!ped! x2 x!ped-up! | %13
 (=A,B,C) B,3 |[K:treble] (DEF) (F2 _G) |[K:bass] C3 (B,A,C) |[K:treble] (FGA G=EG) | %17
[K:bass] (C>=B,C C, C2) | (C>=B,C C, C2) | (C,>=B,,C, C,, C,2) | (C,>=B,,C, C,, C,2) | %21
 .F,,.C.A, .C,.C.G, | .F,,.C.A, .C,.C.G, | .F,.C.A, .E,.C.G, | .D,.A,.F, .C,.A,.E, | %25
 .D,.D.A, .D,.B,.F, | .C,.C.A, .C,.C.G, | .F,.C.A, ._E,.C.G, | .D,.A,.F, .C,.C.A, | %29
 .D,.A,.F, ._G,,.__B,._G, | .A,,.A,.F, .A,,.A,.E, | .D,.A,.F, D, z z |[K:treble] A3- __B3 | %33
 A3- A z z |[K:bass]"_con " .B,,.F,.B, .D,.G,.B, | .C,.G,.B, .F,,.A,.C | .B,,.F,.B, .D,.F,.B, | %37
 .E,,.E,.A, .E,,.E,.G, | .A,,.E,.A, z2 z | z6 | .A,,.C.A, ._G,,.B,._G, | .F,.C.=A, .B,,.D.B, | %42
 .C,.C._A, .E,.B,.G, | .A,,.E.C .A, z z | .A,.C.A, .A,.=D.=B, | .G,.=D.=B, .F,.F.C | %46
 .C,.C.A, .E,.C.A, | .[E,,E,].C.G, .E,.B,.G, | .F,.C.A, .E,.C.G, | .D,.D.A, .C,.C.A, | %50
 .D,.A, z .C,.A, z | .D,.A, z .D,.A, z | .=D,.A, z .D,.A, z | .E,.A, z .E,.A, z | %54
 .=E,.^G, z .=A,,.^F, z | (^G,3 !fermata!=A,3) | [=E,^G,=B,] z z z2 z | z6 | z6 | z6 | z6 | z6 | %62
 =C,6 | (D,3 [_G,,_G,]3) | (F,3 _G,3) | .D,.F.D .C,.E.C | .B,,.F.D .A,,.F.C | %67
 .D,.D.A, ._G,,.D.__B, | .A,,.D.A, .A,,.C.A, | D3 D3 | D3 D3 | C3 C3 | _C3 C3 | B,3 B,3 | B,3 B,3 | %75
 =A,3 A,3 | (B,3 [D,F,]3 | [E,A,]3 [E,B,]3) |"_con " (A,,/E,<CA,/ A,,/E,<CA,/ | %79
 A,,/E,<CA,/ A,,/E,/A,/!<(!C/A,/G,/)!<)! |!ped! [__B,,_G,]6- | [B,,G,]6!ped-up! | %82
!ped! (A,,/E,<CA,/ A,,/E,<CA,/ | A,,/E,<CA,/ A,,/E,<CA,/)!ped-up! |!ped! [=A,,^F,]6- | %85
 [A,,F,]6!ped-up! |!ped! (=A,,=D,=E, ^F,=A,=D)!ped-up! |!ped! (=A,,=D,=E, ^F,=A,=D)!ped-up! | %88
 [_E,,_E,]6- | ([_E,,_E,]=A,=B, C=DF/E/) | [^F,,^F,]6- | [F,,F,]6 | %92
!pp!!ped! !arpeggio![G,,=D,=F,]6- | [G,,D,=F,]6!ped-up! |!ped! !arpeggio![C,G,_B,]6!ped-up! | %95
!ped! !arpeggio![C,G,B,]6!ped-up! |[K:treble]!ped! !arpeggio![F,C_E]6!ped-up! | %97
!ped! !arpeggio![F,CE]6!ped-up! |[K:bass]"_" !>![F,,F,] z z !>![F,,F,] z z | %99
 !>![F,,,F,,] z z z2 z | !^![B,,,B,,]!^![C,,C,]!^![D,,D,] !^![E,,E,]!^![F,,F,]!^![_G,,_G,] | %101
 !^![F,,F,]!^![E,,E,]!^![D,,D,] !^![C,,C,]!^![B,,,B,,]!^![_A,,,_A,,] | %102
 !^![G,,,G,,]!^![C,,C,]!^![=D,,=D,] !^![E,,E,]!^![F,,F,]!^![G,,G,] | %103
 !^![=B,,=B,]!^![C,C]!^![_B,,_B,] !^![=A,,=A,]!^![F,,F,]!^![B,,B,] | %104
 !^!_E,!^![G,,G,]!^![_A,,_A,] !^!D,!^![F,,F,]!^![G,,G,] | %105
 !^!C,!^![F,,F,]!^![G,,G,] !^![A,,A,]!^![B,,B,]!^![=B,,=B,] | .C.F,.G, .A,.B,.=B, | %107
[K:treble] .=E.c.B .A.G.F |[K:bass] .C,,.F,,.G,, .A,,.B,,.=B,, | .C,,.C,.=B,, ._B,,.A,,.G,, | %110
 [F,,,F,,]6- | [F,,,F,,]6- | [F,,,F,,]6 |[K:treble] !tenuto!c3 !tenuto!c3 | (d>cd e2 c) | %115
 (A3 B>AB) |[K:bass] !tenuto!C3 !tenuto!C3 | (D>CD _E2 C) | (=A,3 B,>_A,B,) | (CB,A,) (A,G,F,) | %120
 (F,_G,A,) B, z z | (F,_G,A,) (B,_CD) | (=G,A,B,) (=CDE) | (=A,B,C)!ped! (=DEF)!ped-up! | %124
 (_DEF) [B,,B,]>[_A,,_A,][B,,B,] | (=C3 B,A,D) | C6 | (C>=B,C C, C2) | (C>=B,C C, C2) | %129
 (C,>=B,,C, C,, C,2) | (C,>=B,,C, C,, C,2) | .F,,.C.A, .C,.C.G, | .F,,.C.A, .C,.C.G, | %133
 .F,.C.A, ._E,.C.G, | .D,.A,.F, .C,.A,.E, | .D,.A,.F, .D,.B,.F, | .C,.C.A, .C,.C.G, | %137
"_con " .F,.C.A, ._E,.C.G, | .D,.D.A, .C,.C.A, | .D,.D.A, ._G,,.__B,._G, | .A,,.D.A, .A,,.A,.A, | %141
 .D,.A,.F, .D, z z |[K:treble] A3- __B3 | A3- A z z |[K:bass]"_con " .B,,.F,.B, .D,.G,.B, | %145
 .C,.G,.B, .F,,.A,.C | .B,,.B, z .D,,.F,.B, | .E,,.E,.A, .E,,.E,.G, | .A,,.E,.A, z2 z | z6 | %150
 .A,,.C.A, ._G,,.B,._G, | .F,.C.=A, .B,,.D.B, | .C,.C._A, .E,.B,.G, | .A,,.E.C .A, z z | %154
 .A,,.C.A, .A,,.=D.=B, | .G,,.=D.=B, !>!.F,!>!.F!>!.C | .C,.C.A, .E,.C.A, | .E,,.C.G, .E,.B,.G, | %158
 .F,.C.A, .E,.C.G, | .D,.D.A, .C,.A, z | .D,.A, z .C,.A, z | .^C,.^G, z .C,.=A, z | %162
 .=D,.=A, z .^C,.A, z | .=D,.=A, z .D,.A, z | .^D,.=A, z .E,.A, z | .=E,.=A, z .E,.^G, z | %166
 .F,.=A, z ._B,,.G, z | !fermata!C,6 ||[K:F] [F,,F,]6 | ([F,,,F,,]3 [A,,,A,,]3) | %170
 [G,,,G,,]3 [C,,C,]2- [C,,C,]/[D,,D,]/ |!f! [_E,,_E,]3- [E,,E,]2- [E,,E,]/[F,,F,]/ | %172
 (!>![G,,G,]3 [D,,D,]2 [=B,,,=B,,]) | ([D,,D,]3- [D,,D,]2 [_B,,,_B,,]) | [A,,,A,,]3 [G,,,G,,]3 | %175
 ([^F,,,^F,,]3 [G,,,G,,]3 | [A,,,A,,]3 [B,,,B,,]3) | [C,,C,]3 [B,,B,]3 | %178
 [F,,F,] z z z/ .[F,,F,]/.[D,,D,].[A,,,A,,] | .[C,,C,]z>.[C,,C,] .[E,,E,]z.[C,,C,] | %180
 .[G,,,G,,] z z z/ .[G,,G,]/.[_E,,_E,].[B,,,B,,] | .[B,,,B,,] z z z/ .=B,,/.[G,,G,].[D,,D,] | %182
 .[=E,,=E,]z>.[E,,E,] .[G,,,G,,]z>.[G,,,G,,] |"^" [A,,,A,,]2 z [A,,,A,,]2 z/ [A,,,A,,]/ | %184
 F,/F,/F,/F,/F,/F,/"^dim." [F,B,D]/[F,B,D]/[F,B,D]/[F,B,D]/[F,B,D]/[F,B,D]/ | %185
 [C,,C,]2 z [C,,C,]2 z | .D,.D.A, .C,.C.A, | .B,,.B,.F, .A,,.A,.F, | .B,,.B,.F, .B,,.B,.G, | %189
 .A,,.A,.F, .A,,.A,.E, | .F,.C.A, .E,.C.G, | .D,.D.A, .C,.C.A, | .F,.C.A, .B,,._D.B, | %193
 .C,.C.A, .C,.C.G, | .C,.C._A, .C,.C.G, |!ped! [F,,,F,,]6- | [F,,,F,,]6!ped-up! | %197
!ped! [_G,,,_G,,]6- | [G,,,G,,]3- [G,,,G,,] z!ped-up! z | [F,,C,]6- | [F,,C,]6 | %201
 [_G,,,_G,,]3- [G,,,G,,]2 z | z6 | z2 z ([_E,_G,B,]3 | [F,A,]3) (!^![_E,_G,B,]3 | %205
 [F,A,]3) ([_E,_G,B,]3 | [F,A,]3) ([_E,_G,B,]3 | [F,A,]3) ([_E,_G,B,]3 | F,3) (C,3 | %209
 F,3) [C,,C,]3- | [C,,C,] z z z2 z | z6 | !fermata!z6 | !arpeggio![F,,C,A,]6 | (C,D,E, C,D,E,) | %215
!ped! F,3 F,3!ped-up! | [F,,C,F,]2 z [F,,C,F,]2 z |!ped!x(D,C,x)!ped-up!(D,C,) | %218
 !fermata![F,,,F,,]2 z z2 z |] %219
V:5
 x6 | x6 | x6 | c'ag fg=e | fba- afg | afa _gfg | f c2- c3- | (c=ABxed) | (c3 dB_G) | F3 cBA | %10
 (F_GF) (!arpeggio![B,G][_CA_c][DGB]) | x3 ((!arpeggio![B,_G][_CA_c][DGB])) | %12
 x3 ((!arpeggio![=CA][DBd][EAc])) | x3 ((!arpeggio![=DB][Ece][FB=d])) | (_d[ce][Bd] [Bd][A_c]B) | %15
 (_GFA =GFA) | (ABc BGB) | (A[GB][FA] [=EG]>[FA][GB] | A[GB][FA] [=EG]>[FA][GB]) | x6 | x6 | x6 | %22
 x6 | (A3 G3) | (F3 E3) | F6 | x6 | x6 | (F3 _G3) | ([FA]3 [_G__B]3 | ([FA]3) [CE]>[DF][E_G] | %31
 [DF]3- [DF]) z z | x6 | x6 | x6 | x6 | x6 | x6 | x6 | x6 | E6 | x6 | x6 | x6 | x6 | x3 (A2- G) | %46
 F3 E3 | G6 | c6 | A6 | A6 | x6 | x6 | x6 | x6 | !fermata!=B,6 | x3 x3 | x3 x3 | x3 x3 | x3 x3 | %60
 x3 x3 | x3 x3 | x3 x3 | x3 x3 | x3 x3 | x6 | ([df]3 [cf]3) | [Ad]3 [__Bd]3 | %68
 [Ad]3 ([ce]>[df][e_g] | [df]/) x/ F2 x F2 | x F2 x F2 | x E2 x E2 | x E2 x E2 | x E2 x E2 | %74
 x C2 x C2 | x C2 x C2 | x D2 x D2 | x E2 x E2 | x6 | x6 | x6 | x6 | x6 | x6 | x6 | x6 | x6 | x6 | %88
 x6 | x6 | x6 | x6 | x6 | x6 | x6 | x6 | x6 | x6 | x6 | x6 | x6 | x6 | x6 | x6 | x6 | x6 | x6 | %107
 x6 | x6 | x6 | (!tenuto!c'3 !tenuto!c'3 | d'>c'd' _e'2 c') | (a3 b>ab) | (c'2 b abg) | %114
 (fd'c' b2 e') | (c'f'c' d'ad' | c') z z z2 z | F=ABxed | [ce]3 dB_G | F3 cBA | x6 | x6 | x6 | x6 | %124
 x3 d3 | a3 c3 | x6 | x6 | x6 | x6 | x6 | x6 | x6 | x6 | x6 | F6 | c6 | x6 | F3 _G3 | F3 [D_G]3 | %140
 x6 | x6 | [df]3 [ce]3 | [df]3- [df] x2 | D2 z G2 z | x3 A2 z | D z D D3 | x3 D3 | C2 x4 | x6 | %150
 E6 | x6 | x6 | x6 | x6 | x3 A3- | x6 | G6 | c6 | A3 A3 | x6 | x6 | x6 | x6 | x6 | x6 | x6 | x6 || %168
[K:F] x3 x3 | x3 x3 | x3 x3 | x3 x3 | x3 x3 | x3 x3 | x3 x3 | x3 x3 | x3 x3 | x3 x3 | x6 | x6 | %180
 x B,/G,/_E/[G,B,]/ G/[B,E]/x/[EG]/[EG]/_e/ | %181
 d/[G=B]/B/[DG]/G/[=B,D]/ [B,D]/[B,D]/B/[B,D]/G/[B,D]/ | %182
 [_B,D]/[B,D]/B/[B,D]/G/[B,D]/ D/[I:staff +1][G,B,]/[I:staff -1]x/[I:staff +1][G,B,]/[G,B,]/[I:staff -1]D/ | %183
 x6 | x6 | x6 | x6 | F6 | D3- D2 z | x3 ([^CE]>[DF][EG]) | x6 | ([Ad]>cd) (e2 c) | x6 | x3 c3 | %194
 c3 c3 | x6 | x6 | x6 | x6 | x6 | x6 | x6 | x6 | x6 | x6 | x3/2"_dim." x/ x4 | x6 | x6 | x6 | x6 | %210
 x6 | x6 | x6 | x3 x3 | (C2 D/C/) (C2 D/C/) | (F/C/A,/DC/) z/ (C/A,/DC/) | x6 | x6 | x6 |] %219
V:6
 x6 | x6 | x6 | x6 | x6 | x6 | !tenuto!C3 !tenuto!C3 | (D>CD E2 C | =A,3 B,>_A,B,) | %9
[K:bass] !tenuto!C,3 !tenuto!C,3 | (D,>=C,D, _G,,2 B,,) | (D,>=C,D, B,,2 D,) | (E,>=D,E, C,2 E,) | %13
 (F,>=E,F,) B,,3 |[K:treble] B,3 (B,>A,B,) |[K:bass] C,6 |[K:treble] C6 |[K:bass] x3 C,3 | x3 C,3 | %19
 x6 | x6 | x6 | x6 | x6 | x6 | x6 | x6 | x6 | x6 | x6 | x6 | x6 |[K:treble] D6- | D3- D x2 | %34
[K:bass] x6 | x6 | x6 | x6 | x6 | x6 | x6 | x6 | x6 | x6 | x6 | x6 | x6 | x6 | x6 | x6 | x6 | x6 | %52
 x6 | x6 | x6 | !fermata!=B,,6 | x6 | x6 | x6 | x6 | x6 | x6 | x6 | x6 | A,,6 | x6 | x6 | x6 | x6 | %69
 D, z z z2 z | x6 | x6 | x6 | x6 | x6 | x6 | x6 | x3 ((A,2 G,)) | x6 | x6 | x6 | x6 | x6 | x6 | %84
 x6 | x6 | =D,,6 | =D,,6 | x6 | x6 | x6 | x6 | =B,2 z z2 z | (C2 =B,- B,=D) z | (F2 =E-) E2 z | %95
 (F2 =E- EG) z |[K:treble] (B2 =A-) [CEA]/[CE][CE][CE]/ | (B2 =A-) [CEA]/[CE][CE][CE]/ | %98
[K:bass] x6 | x6 | x6 | x6 | x6 | x6 | x6 | x6 | C,6 |[K:treble] C6 |[K:bass] C,,6 | %109
 .C, !>!C,2- C,3 | x6 | x6 | x6 |[K:treble] F6- | F6- | F6 |[K:bass] F,6- | F,6- | F,6 | %119
 (!tenuto!C,3 !tenuto!C,3) | (D,>C,D,) (!arpeggio!_G,,2 B,,) | (D,>C,D,) ((B,,2 D,)) | %122
 (E,>=D,E,) ((C,2 E,)) | (F,>=E,F,){/B,,} B,3 | B,3 x3 | =C,6- | C,6 | x3 C,3 | x3 C,3 | x6 | x6 | %131
 x6 | x6 | x6 | x6 | x6 | x6 | x6 | x6 | x6 | x6 | x6 |[K:treble] D6- | D3- D x2 |[K:bass] x6 | %145
 x6 | x6 | x6 | x6 | x6 | x6 | x6 | x6 | x6 | x6 | x6 | x6 | x6 | x6 | x6 | x6 | x6 | x6 | x6 | %164
 x6 | x6 | x6 | x6 ||[K:F] x6 | x6 | x6 | x6 | x6 | x6 | x6 | x6 | x6 | x6 | x6 | x6 | x6 | x6 | %182
 x6 | %183
 [E,A,]/[E,A,]/[E,A,]/[E,A,]/[E,A,]/[E,A,]/ [E,A,^C]/[E,A,C]/[E,A,C]/[E,A,C]/[E,A,C]/[E,A,C]/ | %184
 [B,,,B,,]2 z/ F,,/ .[D,,D,].[B,,,B,,].[A,,,G,,] | x6 | x6 | x6 | x6 | x6 | x6 | x6 | x6 | x6 | %194
 x6 | x6 | x6 | x6 | x6 | x6 | x6 | x6 | x6 | x6 | x6 | x6 | x6 | x6 | x6 | x6 | x6 | x6 | x6 | %213
 x6 | F,,6 | F,,6 | x6 | [F,,,F,,]3 [F,,,F,,]3 | x6 |] %219
V:7
 x6 | x6 | x6 | x6 | x6 | x6 | x6 | x6 | x6 | x6 | !stemless!A x5 | !stemless!A x5 | x6 | x6 | x6 | %15
 x6 | x6 | x6 | x6 | x6 | x6 | x6 | x6 | x6 | x6 | x6 | x6 | x6 | x6 | x6 | x6 | x6 | x6 | x6 | %34
 x6 | x6 | x6 | x6 | x6 | x6 | x6 | x6 | x6 | x6 | x6 | x6 | [Ac]6 | (c3 B3) | x6 | x6 | x6 | x6 | %52
 x6 | x6 | x6 | x6 | x x2 x x2 | x x2 x x2 | x x2 x x2 | x x2 x x2 | x x2 x x2 | x x2 x x2 | %62
 x x2 x x2 | x x2 x x2 | x x2 x x2 | x6 | x6 | x6 | x6 | x6 | x6 | x6 | x6 | x6 | x6 | x6 | x3 x3 | %77
 x3 x3 | x6 | x6 | x6 | x6 | x6 | x6 | x6 | x6 | x6 | x6 | x6 | x6 | x6 | x6 | x6 | x6 | x6 | x6 | %96
 x6 | x6 | x6 | x6 | x6 | x6 | x6 | x6 | x6 | x6 | x6 | x6 | x6 | x6 | x6 | x6 | x6 | x6 | x6 | %115
 x6 | x6 | x6 | x6 | x6 | x6 | x6 | x6 | x6 | x6 | x6 | x6 | x6 | x6 | x6 | x6 | x6 | x6 | x6 | %134
 x6 | x6 | x6 | x6 | x6 | x6 | x6 | x6 | x6 | x6 | x6 | x6 | x6 | x6 | x6 | x6 | x6 | x6 | x6 | %153
 x6 | x6 | x6 | [Ac]6 | (c3 B3) | x6 | x6 | x6 | x6 | x6 | x6 | x6 | x6 | x6 | x6 || %168
[K:F] x x2 x x2 | x x2 x x2 | x x2 x x2 | x x2 x x2 | x x2 x x2 | x x2 x x2 | x x2 x x2 | %175
 x x2 x x2 | x x2 x x2 | x x2 x x2 | x6 | x6 | x6 | x6 | x6 | x6 | x6 | x6 | x6 | D3 C3 | x6 | x6 | %190
 x6 | x6 | x6 | x6 | x6 | x6 | x6 | x6 | x6 | x6 | x6 | x6 | x6 | x6 | x6 | x6 | x6 | x6 | x6 | %209
 x6 | x6 | x6 | x6 | x x2 x x2 | x6 | x6 | x6 | x6 | x6 |] %219
V:8
 x6 | x6 | x6 | x6 | x6 | x6 | x6 | x6 | x6 |[K:bass] x6 | x6 | x6 | x6 | x6 |[K:treble] x6 | %15
[K:bass] x6 |[K:treble] x6 |[K:bass] x6 | x6 | x6 | x6 | x6 | x6 | x6 | x6 | x6 | x6 | x6 | x6 | %29
 x6 | x6 | x6 |[K:treble] x6 | x6 |[K:bass] x6 | x6 | x6 | x6 | x6 | x6 | x6 | x6 | x6 | x6 | x6 | %45
 x6 | x6 | x6 | x6 | x6 | x6 | x6 | x6 | x6 | x6 | x6 | x6 | x6 | x6 | x6 | x6 | x6 | x6 | x6 | %64
 x6 | x6 | x6 | x6 | x6 | x6 | x6 | x6 | x6 | x6 | x6 | x6 | x6 | x6 | x6 | x6 | x6 | x6 | x6 | %83
 x6 | x6 | x6 | x6 | x6 | x6 | x6 | x6 | x6 | x6 | x6 | x6 | x6 |[K:treble] x6 | x6 |[K:bass] x6 | %99
 x6 | x6 | x6 | x6 | x6 | x6 | x6 | x6 |[K:treble] x6 |[K:bass] x6 | x6 | x6 | x6 | x6 | %113
[K:treble] x6 | x6 | x6 |[K:bass] x3 (C>F=E) | x6 | x6 | x6 | x6 | x6 | x6 | x6 | x6 | x6 | x6 | %127
 x6 | x6 | x6 | x6 | x6 | x6 | x6 | x6 | x6 | x6 | x6 | x6 | x6 | x6 | x6 |[K:treble] x6 | x6 | %144
[K:bass] x6 | x6 | x6 | x6 | x6 | x6 | x6 | x6 | x6 | x6 | x6 | x6 | x6 | x6 | x6 | x6 | x6 | x6 | %162
 x6 | x6 | x6 | x6 | x6 | x6 ||[K:F] x6 | x6 | x6 | x6 | x6 | x6 | x6 | x6 | x6 | x6 | x6 | x6 | %180
 x6 | x6 | x6 | x6 | x6 | x6 | x6 | x6 | x6 | x6 | x6 | x6 | x6 | x6 | x6 | x6 | x6 | x6 | x6 | %199
 x6 | x6 | x6 | x6 | x6 | x6 | x6 | x6 | x6 | x6 | x6 | x6 | x6 | x6 | x6 | x6 | x6 | x6 | x6 | %218
 x6 |] %219

